shader_type canvas_item;

void vertex() {
	UV.x += TIME * .02;
	// Called for every vertex the material is visible on.
}



//void light() {
//	// Called for every pixel for every light affecting the CanvasItem.
//	// Uncomment to replace the default light processing function with this one.
//}
